!!!COA:	Josquin des Prez
!!!CDT:	~1450-1521/08/27
!!!OTL@@LAT:	Benedicite, omnia opera
!!!ONB: long name: Benedicite, omnia opera domini
!!!AGN:	Motet
!!!SCT:	NJE 14.2
!!!SCA:	New Josquin Edition 14.2
!!!voices:	4
**kern	**kern	**kern	**kern
*staff4	*staff3	*staff2	*staff1
*Ivox	*Ivox	*Ivox	*Ivox
*I"Bassus	*I"Tenor	*I"Altus	*I"Superius
*I'B	*I'T	*I'A	*I'S
*clefF4	*clefGv2	*clefGv2	*clefG2
*k[b-]	*k[b-]	*k[b-]	*k[b-]
*M2/1	*M2/1	*M2/1	*M2/1
*met(C|)	*met(C|)	*met(C|)	*met(C|)
=1-	=1-	=1-	=1-
0r	0r	1r	0cc
.	.	[1f	.
=2	=2	=2	=2
0r	0r	1f]	1a
.	.	1d	[1b-
=3	=3	=3	=3
0r	1r	0e	1b-]
.	[1c	.	1g
=4	=4	=4	=4
0F	1c]	1c	0a
.	1A	[1d	.
=5	=5	=5	=5
1D	0B-	1d]	1f
[1E	.	1B-	[1g
=6	=6	=6	=6
1E]	1G	1.c	1g]
1C	[1A	.	1e
.	.	4B-\	.
.	.	4A/	.
=7	=7	=7	=7
0D	1A]	2A/	0f
.	.	4G/	.
.	.	4F/	.
.	1F	[1f	.
=8	=8	=8	=8
[0C;	1.G	2f\]	1.cc
.	.	4e\	.
.	.	4d\	.
.	.	2e\	.
.	4A/	2f\	4b-\
.	4B-\	.	4a/
=9	=9	=9	=9
0C]	0c;	0e;	0g;
=10	=10	=10	=10
0F	0c	0f	0a
=11	=11	=11	=11
1G	1B-	1d	1g
1C	1c	1e	1g
=12	=12	=12	=12
1F	1A	2r	2r
.	.	1f	1a
1G	1B-	.	.
.	.	2e\	2g/
=13	=13	=13	=13
1F	1c	1f	1a
1B-	1d	1g	1b-
=14	=14	=14	=14
2F\	2c\	2f\	2a/
2F\	2c\	2f\	2a/
2G\	2B-\	2e\	2g/
2G\	2B-\	2e\	2g/
=15	=15	=15	=15
0F	1c	1f	0a
.	1r	1c	.
=16	=16	=16	=16
1c	1r	1A	0r
1A	1c	1F	.
=17	=17	=17	=17
1F	1A	2r	1cc
.	.	1f	.
1r	1F	.	1a
.	.	2f\	.
=18	=18	=18	=18
1F	1c	1f	1f
2F\	2c\	2f\	1a
[2F\	[2c\	[2f\	.
=19	=19	=19	=19
2F\]	2c\]	2f\]	2a/
2F\	2c\	2f\	1a
2F\	2c\	1f	.
2F\	2c\	.	2a/
=20	=20	=20	=20
1F	1c	2r	2a/
.	.	1f	2a/
[1F	[1c	.	1a
.	.	4e\	.
.	.	4d\	.
=21	=21	=21	=21
1F]	0c]	4c\	2r
.	.	4F/	.
.	.	2.f\	2a/
1C	.	.	2g/
.	.	4e\	.
.	.	4e\	2a/
.	.	4d\	.
=22	=22	=22	=22
1BB-	1d	1f	1b-
1C	1c	1e	2a/
.	.	.	[2g/
=23	=23	=23	=23
2D\	2A/	2d\	4g/]
.	.	.	4f/
2BB-/	2B-\	2d\	1f
1C	1G	1c	.
.	.	.	2e/
=24	=24	=24	=24
1F	0F	2.A/	0f
.	.	4B-\	.
1r	.	2c\	.
.	.	[2d\	.
=25	=25	=25	=25
1G	1r	4d\]	0r
.	.	4c\	.
.	.	4B-\	.
.	.	4A/	.
1E	1c	1G	.
=26	=26	=26	=26
1F	1A	1r	0r
1G	1B-	1g	.
=27	=27	=27	=27
1C	1c	1e	1cc
1r	1F	1f	1a
=28	=28	=28	=28
1G	1r	1g	1b-
2A\	1c	1c	1cc
2A\	.	.	.
=29	=29	=29	=29
2.B-\	2d\	2r	1f
.	2d\	2f\	.
4A\	.	.	.
2G\	2.e\	2g\	2r
[2A\	.	2e\	[2cc\
.	4d\	.	.
=30	=30	=30	=30
2A\]	2c\	1a	2cc\]
2F\	1d	.	2a/
2D\	.	2f\	1dd
[2G\	2B-\	2d\	.
=31	=31	=31	=31
4G\]	2G/	2.g\	2b-\
4F\	.	.	.
4E\	2.c\	.	2g/
4D\	.	4f\	.
1C	.	4e\	2.cc\
.	4B-\	4d\	.
.	4A/	2c\	.
.	4G/	.	4b-\
=32	=32	=32	=32
1r	1F	2c\	4a/
.	.	.	4g/
.	.	2.d\	2f/
1D	1r	.	2r
.	.	4c\	.
.	.	4B-\	2ff\
.	.	4A/	.
=33	=33	=33	=33
1E	0r	2G/	2.gg\
.	.	2g\	.
.	.	.	8ff\L
.	.	.	8ee\J
1F	.	2f\	4dd\
.	.	.	4cc\
.	.	2e\	[2cc\
=34	=34	=34	=34
1G	1d	1d	2cc\]
.	.	.	2bni\
1C	1e	1c	[1cc
=35	=35	=35	=35
1r	1f	0r	1cc]
1G	1g	.	1r
=36	=36	=36	=36
1A	1c	1r	0r
1B-	1r	1d	.
=37	=37	=37	=37
1c	0r	1e	1g
1F	.	1f	1a
=38	=38	=38	=38
1r	1G	1g	1b-
2.F\	1A	1c	1cc
4E\	.	.	.
=39	=39	=39	=39
2D\	1B-	2r	1f
2D\	.	1f	.
1C	1c	.	2r
.	.	2e\	[2cc\
=40	=40	=40	=40
2.F\	2F/	2f\	2cc\]
.	1f	2c\	1a
4E\	.	.	.
2D\	.	2.d\	.
[2G\	[2d\	.	[2b-\
.	.	4c\	.
=41	=41	=41	=41
2G\]	2d\]	4B-\	2b-\]
.	.	4A/	.
2C/	1e	2.c\	2g/
2.c\	.	.	1g
.	.	4B-\	.
.	2c\	4A/	.
4B-\	.	4G/	.
=42	=42	=42	=42
4A\	1c	4F/	2r
4G\	.	4G/	.
2F\	.	2A/	2.cc\
2r	2.f\	2F/	.
.	.	.	4b-\
[2F\	.	2c\	4a/
.	4e\	.	4g/
=43	=43	=43	=43
2F\]	4d\	1F	2a/
.	4c\	.	.
2BB-/	2d\	.	2b-\
2F\	2c\	2r	2a/
2D\	[2d\	[2f\	[2b-\
=44	=44	=44	=44
1F	4d\]	2f\]	4b-\]
.	4c\	.	4a/
.	2c\	2f\	1a
1G	2B-\	2d\	.
.	4A/	2e\	2g/
.	4G/	.	.
=45	=45	=45	=45
2r	0F	1f	1a
2.c\	.	.	.
.	.	1r	2r
4B-\	.	.	.
4A\	.	.	2cc\
4G\	.	.	.
=46	=46	=46	=46
1F	1r	2f\	2cc\
.	.	2f\	2a/
1r	2r	2d\	2b-\
.	2c\	2e\	2g/
=47	=47	=47	=47
2F\	2c\	2c\	0r
2F\	2A/	2r	.
2D\	2B-\	1r	.
2E\	2G/	.	.
=48	=48	=48	=48
2C/	0r	2r	1cc
2r	.	1f	.
1r	.	.	2a/
.	.	2d\	2b-\
=49	=49	=49	=49
2r	1c	2e\	2g/
1F	.	2c\	2r
.	2A/	1r	1r
2D\	2B-\	.	.
=50	=50	=50	=50
2E\	2G/	1r	2r
2C/	2r	.	1cc
1r	1r	1f	.
.	.	.	2a/
=51	=51	=51	=51
0r	0r	2d\	2b-\
.	.	2e\	2cc\
.	.	2f\	2a/
.	.	2d\	[2dd\
=52	=52	=52	=52
0r	0r	1g	2dd\]
.	.	.	2b-\
.	.	2e\	2cc\
.	.	2f\	[2dd\
=53	=53	=53	=53
0r	1r	2.g\	4dd\]
.	.	.	4cc\
.	.	.	4b-\
.	.	4f\	4a/
.	2r	4e\	1g
.	.	4d\	.
.	[2c\	2c\	.
=54	=54	=54	=54
1F	2c\]	0r	1a
.	2A/	.	.
2D\	2B-\	.	1r
2E\	2c\	.	.
=55	=55	=55	=55
2F\	2A/	0r	0r
2D\	1d	.	.
1G	.	.	.
.	2B-\	.	.
=56	=56	=56	=56
2E\	2c\	0r	0r
2F\	2.d\	.	.
2.G\	.	.	.
.	4c\	.	.
.	4B-\	.	.
4F\	4A/	.	.
=57	=57	=57	=57
4E\	1G	2r	0r
4D\	.	.	.
1C	.	1c	.
.	1r	.	.
2F\	.	2A/	.
=58	=58	=58	=58
2G\	0r	2B-\	2r
2.F\	.	2A/	1cc
.	.	1F	.
4G\	.	.	.
4A\	.	.	2a/
4F\	.	.	.
=59	=59	=59	=59
2G\	2r	1r	2b-\
2F\	1c	.	2a/
1r	.	2F/	1f
.	2A/	2c\	.
=60	=60	=60	=60
2r	2B-\	2d\	0r
1c	2A/	2e\	.
.	1F	2f\	.
2A\	.	2c\	.
=61	=61	=61	=61
2B-\	2r	2d\	2r
2A\	1c	2e\	1a
1F	.	1f	.
.	2c\	.	2a/
=62	=62	=62	=62
2F\	2c\	2f\	2a/
2F\	2c\	2f\	2a/
2F\	[1c	2f\	[1a
2F\	.	2f\	.
=63	=63	=63	=63
1F	1c]	1f	1a]
2.BB-/	2.d\	2.f\	2.b-\
4BB-/	4d\	4f\	4b-\
=64	=64	=64	=64
2F\	2c\	2f\	2a/
2G\	1B-	2d\	1g
2E\	.	2e\	.
2F\	2A/	[2c\	2f/
=65	=65	=65	=65
2C/	2G/	4c\]	2e/
.	.	4B-\	.
2D\	2F/	4B-\	2.f/
.	.	4A/	.
1C	1G	1c	.
.	.	.	4d/
.	.	.	4e/
.	.	.	4d/
=66	=66	=66	=66
0r	0F	1r	0f
.	.	[1c	.
=67	=67	=67	=67
0F	0r	1c]	0r
.	.	1c	.
=68	=68	=68	=68
1F	0r	1d	0r
1G	.	1e	.
=69	=69	=69	=69
1A	1r	1c	0cc
1F	[1f	1r	.
=70	=70	=70	=70
0r	1f]	0r	1cc
.	1f	.	1dd
=71	=71	=71	=71
0r	1g	1r	1ee
.	1a	[1f	1cc
=72	=72	=72	=72
0B-	1f	1f]	0r
.	1r	1d	.
=73	=73	=73	=73
1G	0r	1e	1r
1A	.	1c	[1cc
=74	=74	=74	=74
1F	0f	0r	1cc]
1r	.	.	1a
=75	=75	=75	=75
2r	1d	1r	1b-
1G	.	.	.
.	1e	2r	1g
4F\	.	[2c\	.
4E\	.	.	.
=76	=76	=76	=76
4F\	2c\	2c\]	0r
4E\	.	.	.
4D\	1f	4B-\	.
4C/	.	4A/	.
2D\	.	2B-\	.
2D\	4e\	2B-\	.
.	4d\	.	.
=77	=77	=77	=77
2C/	2e\	1c	2r
2.F\	2.f\	.	1cc
.	.	1r	.
4G\	4e\	.	.
2A\	4d\	.	4b-\
.	4c\	.	4a/
=78	=78	=78	=78
1G	2d\	2r	2b-\
.	2d\	1g	2b-\
1C	[1c	.	[1cc
.	.	2e\	.
=79	=79	=79	=79
2r	1c]	2f\	1cc]
1c	.	2e\	.
.	2r	1c	1r
2A\	[2c\	.	.
=80	=80	=80	=80
2c\	2c\]	1r	1r
2A\	2A/	.	.
1F	2c\	2r	1cc
.	2A/	[2c\	.
=81	=81	=81	=81
2r	2F/	2c\]	2a/
1F	2.f\	2A/	2cc\
.	.	2c\	2a/
.	4e\	.	.
2F\	4d\	2A/	2f/
.	4c\	.	.
=82	=82	=82	=82
1D	1B-	1F	2r
.	.	.	1ff
1C	1c	1G	.
.	.	.	2ee\
=83	=83	=83	=83
2.F\	2.d\	2.A/	2.ff\
4G\	4e\	4B-\	8ee\L
.	.	.	8dd\J
2A\	2f\	2c\	2cc\
[2B-\	[2g\	[2d\	2b-\
=84	=84	=84	=84
4B-\]	4g\]	4d\]	2r
4A\	4f\	4c\	.
4G\	1f	4B-\	1dd
4F\	.	4A/	.
2G\	.	1B-	.
2G\	2e\	.	4cc\
.	.	.	4b-\
=85	=85	=85	=85
2F\	2.f\	2c\	2a/
2BB-/	.	2B-\	2b-\
.	8e\L	.	.
.	8d\J	.	.
2F\	2c\	2c\	[1a
2D\	[2d\	[2f\	.
=86	=86	=86	=86
1F	2d\]	2f\]	2a/]
.	2c\	2f\	2f/
1BB-	1d	2.f\	1b-
.	.	4g\	.
=87	=87	=87	=87
0F	0c	0f	0a
=88	=88	=88	=88
0r	0r	1r	1cc
.	.	1f	1dd
=89	=89	=89	=89
1G	1r	1g	1b-
1A	1c	1e	1cc
=90	=90	=90	=90
1F	1d	1f	1a
1G	1B-	1d	1r
=91	=91	=91	=91
1C	1c	1r	1r
1r	1A	1c	2r
.	.	.	[2cc\
=92	=92	=92	=92
1c	2r	1A	2cc\]
.	1c	.	1a
1A	.	1c	.
.	[2A/	.	[2cc\
=93	=93	=93	=93
1c	2A/]	1F	2cc\]
.	1c	.	1f
1F	.	1c	.
.	[2F/	.	[2cc\
=94	=94	=94	=94
1F	2F/]	2A/	2cc\]
.	1c	2A/	2b-\
2F\	.	2r	1a
2E\	2F/	[2f\	.
=95	=95	=95	=95
0D	0F	4f\]	2r
.	.	4e\	.
.	.	4d\	1ff
.	.	4c\	.
.	.	4B-\	.
.	.	4c\	.
.	.	4d\	4ee\
.	.	4B-\	4dd\
=96	=96	=96	=96
[0C	[0G	1c	0ee
.	.	1r	.
=97	=97	=97	=97
0C]	0G]	1.c	1r
.	.	.	[1cc
.	.	2B-\	.
=98	=98	=98	=98
1r	1.c	2A/	2cc\]
.	.	2G/	2b-\
[1c	.	1F	2a/
.	2B-\	.	2g/
=99	=99	=99	=99
2c\]	2A/	1r	2f/
2B-\	2G/	.	2g/
2A\	1F	1c	1a
2G\	.	.	.
=100	=100	=100	=100
1F	1r	1c	1r
1G	1d	[1B-	1g
=101	=101	=101	=101
2G\	2d\	2B-\]	2g/
1G	1d	2B-\	1g
.	.	1B-	.
2G\	2d\	.	2g/
=102	=102	=102	=102
1G	1d	1B-	1g
1G	1d	1B-	1g
=103	=103	=103	=103
2G\	2d\	1.B-	2g/
1G	1d	.	1g
2C/	2c\	2G/	2e/
=104	=104	=104	=104
[0C	2.c\	0G	2e/
.	.	.	1cc
.	4d\	.	.
.	2e\	.	.
.	[2c\	.	4b-\
.	.	.	4a/
=105	=105	=105	=105
0C]	2c\]	[0c	4b-\
.	.	.	4a/
.	4B-\	.	4g/
.	4A/	.	4f/
.	1G	.	1e
=106	=106	=106	=106
1r	[0F	0c]	0f
2.A\	.	.	.
4B-\	.	.	.
=107	=107	=107	=107
2c\	0F_	1r	0r
2d\	.	.	.
4c\	.	2.A/	.
4B-\	.	.	.
4A\	.	.	.
4G\	.	4B-\	.
=108	=108	=108	=108
0F	1F]	2c\	0r
.	.	2d\	.
.	2.A/	4c\	.
.	.	4B-\	.
.	.	4A/	.
.	4B-\	4G/	.
=109	=109	=109	=109
0r	2c\	0F	1r
.	2d\	.	.
.	4c\	.	2.a/
.	4B-\	.	.
.	4A/	.	.
.	4G/	.	4b-\
=110	=110	=110	=110
1r	0F	0r	2cc\
.	.	.	2dd\
1c	.	.	4cc\
.	.	.	4b-\
.	.	.	4a/
.	.	.	4g/
=111	=111	=111	=111
2A\	0r	1r	0f
2B-\	.	.	.
2A\	.	1c	.
[2F\	.	.	.
=112	=112	=112	=112
2F\]	0r	2A/	0r
2.G\	.	2B-\	.
.	.	2A/	.
4F\	.	.	.
[2F\	.	2F/	.
=113	=113	=113	=113
2F\]	1r	2G/	0r
2E\	.	2G/	.
[1F	1c	4F/	.
.	.	4G/	.
.	.	4A/	.
.	.	4B-\	.
=114	=114	=114	=114
2F\]	2A/	2c\	1r
2BB-/	2B-\	2d\	.
1F	2A/	2c\	1cc
.	2F/	[2f\	.
=115	=115	=115	=115
1r	2G/	2f\]	2a/
.	2G/	2e\	2b-\
2r	1F	2f\	2a/
2F\	.	2c\	[2f/
=116	=116	=116	=116
2D\	1B-	2d\	2f/]
2E\	.	2G/	2.g/
2F\	2A/	2A/	.
.	.	.	4f/
2D\	2F/	2B-\	[2f/
=117	=117	=117	=117
1C	1G	2c\	2f/]
.	.	4B-\	2e/
.	.	4A/	.
2r	2F/	2A/	2f/
[2F\	[2c\	[2f\	[2a/
=118	=118	=118	=118
2F\]	2c\]	2f\]	2a/]
2G\	2B-\	2e\	2g/
2F\	2c\	2f\	2a/
2G\	2B-\	2e\	2g/
=119	=119	=119	=119
1F	1c	1f	1a
1G	1B-	1d	2r
.	.	.	2b-\
=120	=120	=120	=120
1C	1c	1e	2g/
.	.	.	1a
1D	1A	1d	.
.	.	.	[2f/
=121	=121	=121	=121
1BB-	1B-	1d	2f/]
.	.	.	2.g/
[1C	1G	2c\	.
.	.	.	4f/
.	.	4B-\	4e/
.	.	4A/	4d/
=122	=122	=122	=122
1C]	1c	1G	1e
1D	1A	2.d\	2r
.	.	.	[2f/
.	.	4c\	.
=123	=123	=123	=123
1BB-	1B-	4d\	2f/]
.	.	4e\	.
.	.	1f	2f/
1C	1G	.	1cc
.	.	2e\	.
=124	=124	=124	=124
2F\	2.A/	1f	4cc\
.	.	.	4b-\
4E\	.	.	4a/
4D\	4B-\	.	4g/
2C/	2c\	2r	2a/
2BB-/	[2d\	[2f\	[2b-\
=125	=125	=125	=125
1F	4d\]	2f\]	4b-\]
.	4c\	.	4a/
.	2c\	2f\	2.a/
1G	1B-	2d\	.
.	.	.	4g/
.	.	2e\	2g/
=126	=126	=126	=126
2.D\	1A	2.f\	2a/
.	.	.	4d/
4C/	.	4e\	4e/
4D\	2.A/	2d\	4f/
4E\	.	.	4g/
[2F\	.	2c\	[2a/
.	4G/	.	.
=127	=127	=127	=127
2F\]	4A/	1f	2a/]
.	4B-\	.	.
4E\	2.c\	.	4g/
4D\	.	.	4f/
2C/	.	2g\	4e/
.	4B-\	.	4d/
2E\	2G/	2c\	[2g/
=128	=128	=128	=128
2D\	2A/	1d	4g/]
.	.	.	4f/
2BB-/	2B-\	.	1f
1C	1G	1c	.
.	.	.	2e/
=129	=129	=129	=129
2r	1F	2r	1f
1c	.	1A	.
.	2r	.	1r
2c\	[2c\	2F/	.
=130	=130	=130	=130
2A\	2c\]	1F	2r
2A\	2c\	.	1cc
1F	2A/	2r	.
.	2A/	[2c\	2cc\
=131	=131	=131	=131
2r	1F	2c\]	1a
2.F\	.	2c\	.
.	1r	2A/	1r
4E\	.	.	.
4F\	.	2A/	.
4G\	.	.	.
=132	=132	=132	=132
2A\	1c	1F	0r
1F	.	.	.
.	1d	2r	.
2D\	.	2F/	.
=133	=133	=133	=133
2E\	0r	2G/	1cc
2F\	.	2A/	.
2BB-/	.	2B-\	1dd
[2B-\	.	[2d\	.
=134	=134	=134	=134
4B-\]	1d	4d\]	1r
4A\	.	4c\	.
4G\	.	4B-\	.
4F\	.	4A/	.
1E	2e\	1G	1cc
.	2e\	.	.
=135	=135	=135	=135
2D\	1f	2A/	2dd\
2BB-/	.	2B-\	2dd\
2C/	2r	4A/	1ee
.	.	4G/	.
2E\	[2c\	[2G/	.
=136	=136	=136	=136
1D	2c\]	2G/]	1ff
.	2B-\	2F/	.
2C/	2c\	2G/	2ee\
[2G\	2d\	2B-\	[2dd\
=137	=137	=137	=137
2G\]	2e\	1A	4dd\]
.	.	.	4cc\
2F\	2f\	.	1cc
1G	1d	2r	.
.	.	[2G/	2bni\
=138	=138	=138	=138
4C/	2c\	2G/]	1cc
4D\	.	.	.
4E\	4G/	2c\	.
4F\	4A/	.	.
4G\	4B-\	2.B-\	2r
4A\	4c\	.	.
[2B-\	[2d\	.	2f/
.	.	4A/	.
=139	=139	=139	=139
4B-\]	2d\]	4G/	2g/
4A\	.	4F/	.
4G\	1c	1f	2a/
4F\	.	.	.
1G	.	.	1b-
.	2B-\	2e\	.
=140	=140	=140	=140
1F	0c	1f	[0a
2r	.	1r	.
2C/	.	.	.
=141	=141	=141	=141
2.F\	0r	2r	0a_
.	.	2c\	.
4E\	.	.	.
2D\	.	2.f\	.
2C/	.	.	.
.	.	4e\	.
=142	=142	=142	=142
0F	0r	2d\	0a]
.	.	2c\	.
.	.	1f	.
=143	=143	=143	=143
[0C	2r	[0e	1r
.	2G/	.	.
.	2.c\	.	2r
.	.	.	2g/
.	4B-\	.	.
=144	=144	=144	=144
0C_	2A/	0e]	2.cc\
.	2G/	.	.
.	.	.	4b-\
.	1c	.	2a/
.	.	.	2g/
=145	=145	=145	=145
0C]	1G	0e	1cc
.	2r	.	1g
.	[2c\	.	.
=146	=146	=146	=146
1F	2c\]	1r	0r
.	2c\	.	.
2F\	2A/	1f	.
[2D\	[2d\	.	.
=147	=147	=147	=147
2D\]	2d\]	2f\	1b-
1G	2G/	1d	.
.	1G	.	2b-\
2C/	.	[2g\	[2g/
=148	=148	=148	=148
1C	2r	2g\]	2g/]
.	1g	2c\	1cc
2r	.	1c	.
[2F\	2c\	.	2a/
=149	=149	=149	=149
2F\]	1c	2f\	1a
2F\	.	2f\	.
1G	2r	[1d	1b-
.	[2B-\	.	.
=150	=150	=150	=150
1G	2B-\]	2d\]	1b-
.	2B-\	2d\	.
[1C	1c	[1e	1g
=151	=151	=151	=151
1C]	1c	1e]	1g
1r	1F	1r	1a
=152	=152	=152	=152
1F	1r	1f	1r
1G	1B-	1d	1b-
=153	=153	=153	=153
1C	1c	1e	1g
1r	1F	1r	1a
=154	=154	=154	=154
1F	1r	1f	1r
1G	1B-	1d	1b-
=155	=155	=155	=155
1C	1c	1e	1g
1r	1F	1r	1a
=156	=156	=156	=156
1F	1r	1f	1r
1G	1B-	1d	1b-
=157	=157	=157	=157
1C	1c	1e	1g
1r	2F/	2f\	1a
.	[2c\	2e\	.
=158	=158	=158	=158
1F	2c\]	1f	0r
.	2A/	.	.
2D\	2F/	1r	.
2BB-/	2G/	.	.
=159	=159	=159	=159
2C/	2A/	2r	2cc\
2D\	2r	2f\	2a/
1r	1r	2d\	2f/
.	.	2B-\	2g/
=160	=160	=160	=160
2r	1r	2c\	2a/
2G\	.	2d\	2r
2A\	2c\	1r	1r
2F\	2d\	.	.
=161	=161	=161	=161
2G\	2B-\	1g	2r
2C/	2c\	.	1cc
2F\	2F/	2a\	.
2D\	2B-\	2f\	2dd\
=162	=162	=162	=162
2G\	2G/	2g\	2b-\
2.F\	1A	1c	2cc\
.	.	.	2f/
4E\	.	.	.
4D\	[2B-\	[2d\	[2g/
4C/	.	.	.
=163	=163	=163	=163
1D	4B-\]	4d\]	4g/]
.	4A/	4c\	4f/
.	4G/	4B-\	1f
.	4F/	4A/	.
1C	1G	1c	.
.	.	.	2e/
=164	=164	=164	=164
*M3/1	*M3/1	*M3/1	*M3/1
*met(3)	*met(3)	*met(3)	*met(3)
1.F	1F	1r	1f
.	1r	1.F	1r
2G\	.	.	.
2A\	[1F	.	1r
2B-\	.	2G/	.
=165	=165	=165	=165
1c	2F/]	2A/	1.f
.	2G/	2B-\	.
1F	2A/	1c	.
.	2B-\	.	2g/
1r	1c	1F	2a/
.	.	.	2b-\
=166	=166	=166	=166
0F	1F	0f	1cc
.	1c	.	1f
1G	1B-	1e	1b-
=167	=167	=167	=167
1F	1c	1f	1a
0G	0B-	0d	1b-
.	.	.	1g
=168	=168	=168	=168
0F	0c	0f	0a
1C	1c	1e	1g
=169	=169	=169	=169
0C	0c	0e	0g
1r	1r	1r	1r
=170	=170	=170	=170
0A	2c\	0.r	0.r
.	2d\	.	.
.	2e\	.	.
.	2f\	.	.
1B-	1g	.	.
=171	=171	=171	=171
1A	1.f	0.r	0.r
2G\	.	.	.
2F\	4e\	.	.
.	4d\	.	.
1G	1e	.	.
=172	=172	=172	=172
0F	1f	2c\	0a
.	.	2d\	.
.	1r	2e\	.
.	.	2f\	.
1r	1r	1g	1b-
=173	=173	=173	=173
0.r	0.r	1.f	1a
.	.	.	2g/
.	.	4e\	2f/
.	.	4d\	.
.	.	1e	1g
=174	=174	=174	=174
0F	0c	1f	1f
.	.	1f	1a
1C	1c	1e	1g
=175	=175	=175	=175
1F	1c	1f	1a
1r	1r	1r	1r
1F	1c	1f	1a
=176	=176	=176	=176
1C	1c	1e	1g
1F	1c	1f	1a
[1F	[1c	[1f	[1a
=177	=177	=177	=177
1F]	1c]	1f]	1a]
1C	1c	1e	1g
1F	1c	1f	1a
=178	=178	=178	=178
1.F	0f	2c\	2r
.	.	2B-\	2cc\
.	.	2A/	2dd\
2E\	.	2G/	2ee\
1D	1f	2A/	1ff
.	.	2F/	.
=179	=179	=179	=179
1C	0g	1c	1ee
1G	.	2B-\	1.dd
.	.	2c\	.
1D	1f	2d\	.
.	.	2e\	4cc\
.	.	.	4b-\
=180	=180	=180	=180
1A	1c	1f	1.cc
0G	0d	0g	.
.	.	.	4bni\
.	.	.	4a/
.	.	.	1bni
=181	=181	=181	=181
*M2/1	*M2/1	*M2/1	*M2/1
*met(C|)	*met(C|)	*met(C|)	*met(C|)
1C	1c	1e	1cc
2r	2r	2r	1g
[2C/	[2e\	[2c\	.
=182	=182	=182	=182
2C/]	2e\]	2c\]	1g
2G\	2d\	2B-\	.
1C	2e\	2c\	1g
.	[2c\	2e\	.
=183	=183	=183	=183
1G	2c\]	1d	1g
.	2Bni\	.	.
1C	[1c	2r	1g
.	.	[2e\	.
=184	=184	=184	=184
2r	2c\]	2e\]	0g
1c	4B-\	4d\	.
.	4A/	4c\	.
.	1G	1d	.
2B-\	.	.	.
=185	=185	=185	=185
1c	2r	2r	0g
.	1g	1e	.
1C	.	.	.
.	4f\	4d\	.
.	4e\	4c\	.
=186	=186	=186	=186
1G	4f\	4d\	1g
.	4e\	4c\	.
.	4d\	4Bni\	.
.	4c\	4A/	.
1G	2d\	2B\	[1g
.	2d\	4c\	.
.	.	4d\	.
=187	=187	=187	=187
1C	1c	1e	1g]
2r	1c	2r	2r
[2F\	.	[2f\	[2a/
=188	=188	=188	=188
2F\]	2d\	2f\]	2a/]
2G\	2B-\	2d\	2b-\
2E\	2c\	2e\	2g/
2F\	2A/	2c\	2a/
=189	=189	=189	=189
2D\	2B-\	2d\	2f/
2E\	2G/	2B-\	2g/
2C/	2c\	2c\	2g/
2F\	2r	2A/	2a/
=190	=190	=190	=190
2r	1c	2r	2r
1F	.	1f	1a
.	2d\	.	.
2G\	2B-\	2d\	2b-\
=191	=191	=191	=191
2E\	2c\	2e\	2g/
2F\	2A/	2c\	2a/
2D\	2B-\	2d\	2f/
2E\	2G/	2B-\	2g/
=192	=192	=192	=192
2C/	2c\	2e-\	2g/
2F\	2A/	2c\	2a/
2D\	2.d\	2f\	2a/
[2G\	.	2d\	2b-\
.	4c\	.	.
=193	=193	=193	=193
4G\]	4B-\	2.g\	2g/
4F\	4A/	.	.
4E\	4G/	.	2.cc\
4D\	4F/	4f\	.
2C/	2.c\	4e\	.
.	.	4d\	4b-\
[2F\	.	2c\	4a/
.	4B-\	.	4g/
=194	=194	=194	=194
4F\]	4A/	2.f\	1a
4E\	4G/	.	.
4D\	2F/	.	.
4C/	.	4e\	.
2BB-/	2f\	2d\	2.dd\
2B-\	2d\	[2g\	.
.	.	.	4cc\
=195	=195	=195	=195
2G\	2.g\	4g\]	4b-\
.	.	4f\	4a/
2.c\	.	4e\	2g/
.	4f\	4d\	.
.	4e\	2c\	2.cc\
4B-\	4d\	.	.
4A\	2c\	[2f\	.
4G\	.	.	4b-\
=196	=196	=196	=196
2F\	2.d\	4f\]	4a/
.	.	4e\	4g/
2.G\	.	2d\	1g
.	4c\	.	.
.	4B-\	2.g\	.
4F\	4A/	.	.
4E\	[2G/	.	[2b-\
4D\	.	4f\	.
=197	=197	=197	=197
2C/	4G/]	4e\	4b-\]
.	4F/	4d\	4b-\
2E\	4G/	2c\	4a/
.	4A/	.	4g/
2D\	2B-\	2d\	4f/
.	.	.	4e/
2C/	2c\	2e\	[2g/
=198	=198	=198	=198
2F\	2A/	4c\	4g/]
.	.	2c\	4f/
2D\	2F/	.	1f
.	.	4B-\	.
1C	1G	1c	.
.	.	.	2e/
=199	=199	=199	=199
2r	1F	2.A/	[0fl
1F	.	.	.
.	.	4B-\	.
.	2r	2c\	.
2BB-/	[2B-\	[2d\	.
=200	=200	=200	=200
1F	2B-\]	2d\]	0f_
.	2A/	2c\	.
1BB-	2.B-\	1d	.
.	4c\	.	.
=201	=201	=201	=201
0Fl	0Al	0cl	0f]
==	==	==	==
*-	*-	*-	*-
!!!RDF**kern: l=long note in original notation
!!!RDF**kern: i=editorial accidental
!!!ENC:	Victoria Chang
!!!END:	2011/02/21/
!!!SMS:	Smijers no. 53, afl. 37
!!!EED:	Jesse Rodin
!!!EEV:	2011/04/06/
!!attribution-level@Jos: 4 (questionable)
!!!ONB:	Translated from MusicXML and edited on 2011/04/06/ by Craig Sapp
!!muse2ps: C^@{COM}{/}@{COA}?\n@{SCT}^I150v90,90,90,150Q16
!!onb:	"3" interpreted as "Met3" in m164 [2011/04/06/]
